third_party/noto/noto_2/emoji_u1f3b1.svg

<svg enable-background="new 0 0 128 128" viewBox="0 0 128 128" xmlns="http://www.w3.org/2000/svg"><radialGradient id="c" cx="63.333" cy="22" r="72.007" gradientUnits="userSpaceOnUse"><stop stop-color="#616262" offset=".5"/><stop stop-color="#212121" offset=".9927"/></radialGradient><path d="M63.88,4C30.76,4.06,3.94,30.98,4,64.12C4.07,97.25,30.99,124.06,64.13,124 c33.13-0.07,59.94-26.98,59.87-60.11C123.95,30.75,97.03,3.93,63.88,4z" fill="url(#c)"/><radialGradient id="b" cx="64" cy="32.393" r="59.474" gradientUnits="userSpaceOnUse"><stop stop-color="#eee" offset=".4945"/><stop stop-color="#BDBDBD" offset=".9973"/></radialGradient><path d="m92.93 63.95c0.03 15.97-12.9 28.95-28.87 28.98-15.98 0.03-28.96-12.9-28.99-28.87-0.03-15.98 12.9-28.96 28.87-28.98 15.98-0.04 28.97 12.89 28.99 28.87z" fill="url(#b)"/><radialGradient id="a" cx="64" cy="41.836" r="35.216" gradientUnits="userSpaceOnUse"><stop stop-color="#616262" offset=".2584"/><stop stop-color="#212121" offset=".9927"/></radialGradient><path d="m76.32 67.39c-1.18-1.71-2.79-3.05-4.81-4.03 1.78-0.94 3.17-2.19 4.18-3.75 1.01-1.57 1.52-3.36 1.52-5.39 0-3.59-1.19-6.43-3.57-8.52s-5.59-3.14-9.64-3.14c-4.07 0-7.29 1.06-9.65 3.17-2.37 2.11-3.55 4.94-3.55 8.49 0 2.02 0.5 3.82 1.5 5.39s2.39 2.82 4.17 3.75c-2.01 0.96-3.6 2.29-4.78 4.01s-1.78 3.73-1.78 6.04c0 3.69 1.27 6.61 3.81 8.77s5.98 3.24 10.31 3.24c4.34 0 7.76-1.07 10.29-3.22 2.52-2.15 3.78-5.07 3.78-8.78-0.01-2.3-0.6-4.32-1.78-6.03zm-15.93-16.71c0.86-0.95 2.06-1.43 3.61-1.43 1.57 0 2.78 0.49 3.64 1.48 0.86 0.98 1.29 2.29 1.29 3.91 0 1.66-0.42 3-1.27 4.01s-2.06 1.52-3.62 1.52c-1.57 0-2.78-0.51-3.64-1.52s-1.29-2.35-1.29-4.01c-0.01-1.69 0.42-3.01 1.28-3.96zm7.86 26.5c-1.02 1.05-2.43 1.58-4.23 1.58-1.83 0-3.27-0.54-4.3-1.63s-1.55-2.52-1.55-4.3c0-1.83 0.53-3.29 1.58-4.37s2.45-1.62 4.21-1.62c1.78 0 3.19 0.54 4.24 1.63s1.58 2.54 1.58 4.35c0.01 1.86-0.5 3.31-1.53 4.36z" fill="url(#a)"/><g opacity=".2"><path d="m64.01 7c31.38 0 56.95 25.52 56.99 56.89 0.06 31.42-25.45 57.04-56.88 57.11h-0.1c-31.38 0-56.96-25.52-57.02-56.89-0.03-15.23 5.88-29.55 16.62-40.34 10.75-10.79 25.05-16.74 40.27-16.77h0.12m0-3h-0.13c-33.12 0.06-59.94 26.98-59.88 60.12 0.07 33.09 26.93 59.88 60.02 59.88h0.11c33.13-0.07 59.94-26.98 59.87-60.11-0.05-33.1-26.91-59.89-59.99-59.89z" fill="#eee"/></g></svg>

<svg width="128" height="128" style="enable-background:new 0 0 128 128;" xmlns="http://www.w3.org/2000/svg" xmlns:xlink="http://www.w3.org/1999/xlink">
  <g id="Layer_1">
    <g>
      <g>
        <radialGradient id="SVGID_1_" cx="63.3333" cy="22" gradientUnits="userSpaceOnUse" r="72.007">
          <stop offset="0.5" style="stop-color:#616262"/>
          <stop offset="0.9927" style="stop-color:#212121"/>
        </radialGradient>
        <path d="M63.88,4C30.76,4.06,3.94,30.98,4,64.12C4.07,97.25,30.99,124.06,64.13,124 c33.13-0.07,59.94-26.98,59.87-60.11C123.95,30.75,97.03,3.93,63.88,4z" style="fill:url(#SVGID_1_);"/>
      </g>
      <g>
        <radialGradient id="SVGID_2_" cx="64" cy="32.3929" gradientUnits="userSpaceOnUse" r="59.4739">
          <stop offset="0.4945" style="stop-color:#EEEEEE"/>
          <stop offset="0.9973" style="stop-color:#BDBDBD"/>
        </radialGradient>
        <path d="M92.93,63.95c0.03,15.97-12.9,28.95-28.87,28.98c-15.98,0.03-28.96-12.9-28.99-28.87 c-0.03-15.98,12.9-28.96,28.87-28.98C79.92,35.04,92.91,47.97,92.93,63.95z" style="fill:url(#SVGID_2_);"/>
      </g>
      <radialGradient id="SVGID_3_" cx="64" cy="41.8355" gradientUnits="userSpaceOnUse" r="35.216">
        <stop offset="0.2584" style="stop-color:#616262"/>
        <stop offset="0.9927" style="stop-color:#212121"/>
      </radialGradient>
      <path d="M76.32,67.39c-1.18-1.71-2.79-3.05-4.81-4.03c1.78-0.94,3.17-2.19,4.18-3.75 c1.01-1.57,1.52-3.36,1.52-5.39c0-3.59-1.19-6.43-3.57-8.52c-2.38-2.09-5.59-3.14-9.64-3.14c-4.07,0-7.29,1.06-9.65,3.17 c-2.37,2.11-3.55,4.94-3.55,8.49c0,2.02,0.5,3.82,1.5,5.39c1,1.57,2.39,2.82,4.17,3.75c-2.01,0.96-3.6,2.29-4.78,4.01 c-1.18,1.72-1.78,3.73-1.78,6.04c0,3.69,1.27,6.61,3.81,8.77c2.54,2.16,5.98,3.24,10.31,3.24c4.34,0,7.76-1.07,10.29-3.22 c2.52-2.15,3.78-5.07,3.78-8.78C78.09,71.12,77.5,69.1,76.32,67.39z M60.39,50.68c0.86-0.95,2.06-1.43,3.61-1.43 c1.57,0,2.78,0.49,3.64,1.48c0.86,0.98,1.29,2.29,1.29,3.91c0,1.66-0.42,3-1.27,4.01c-0.85,1.01-2.06,1.52-3.62,1.52 c-1.57,0-2.78-0.51-3.64-1.52c-0.86-1.01-1.29-2.35-1.29-4.01C59.1,52.95,59.53,51.63,60.39,50.68z M68.25,77.18 c-1.02,1.05-2.43,1.58-4.23,1.58c-1.83,0-3.27-0.54-4.3-1.63s-1.55-2.52-1.55-4.3c0-1.83,0.53-3.29,1.58-4.37 c1.05-1.08,2.45-1.62,4.21-1.62c1.78,0,3.19,0.54,4.24,1.63c1.05,1.09,1.58,2.54,1.58,4.35C69.79,74.68,69.28,76.13,68.25,77.18z" style="fill:url(#SVGID_3_);"/>
      <g style="opacity:0.2;">
        <path d="M64.01,7C95.39,7,120.96,32.52,121,63.89c0.06,31.42-25.45,57.04-56.88,57.11l-0.1,0 C32.64,121,7.06,95.48,7,64.11c-0.03-15.23,5.88-29.55,16.62-40.34C34.37,12.98,48.67,7.03,63.89,7L64.01,7 M64.01,4 c-0.04,0-0.08,0-0.13,0C30.76,4.06,3.94,30.98,4,64.12C4.07,97.21,30.93,124,64.02,124c0.04,0,0.07,0,0.11,0 c33.13-0.07,59.94-26.98,59.87-60.11C123.95,30.79,97.09,4,64.01,4L64.01,4z" style="fill:#EEEEEE;"/>
      </g>
    </g>
  </g>
  <g id="Layer_2" style="display:none;">
    <g style="display:inline;">
      <g style="opacity:0.6;">
        <circle cx="64" cy="64" r="28" style="opacity:0.61;fill:none;stroke:#010101;stroke-width:0.2625;stroke-miterlimit:10;"/>
        <line style="opacity:0.61;fill:none;stroke:#010101;stroke-width:0.25;stroke-miterlimit:10;" x1="84" x2="84" y1="0" y2="128"/>
        <line style="opacity:0.61;fill:none;stroke:#010101;stroke-width:0.25;stroke-miterlimit:10;" x1="44" x2="44" y1="0" y2="128"/>
        <line style="opacity:0.61;fill:none;stroke:#010101;stroke-width:0.25;stroke-miterlimit:10;" x1="64" x2="64" y1="0" y2="128"/>
        <line style="opacity:0.61;fill:none;stroke:#010101;stroke-width:0.25;stroke-miterlimit:10;" x1="128" x2="0" y1="64" y2="64"/>
        <line style="opacity:0.61;fill:none;stroke:#010101;stroke-width:0.25;stroke-miterlimit:10;" x1="128" x2="0" y1="44" y2="44"/>
        <line style="opacity:0.61;fill:none;stroke:#010101;stroke-width:0.25;stroke-miterlimit:10;" x1="128" x2="0" y1="83.75" y2="83.75"/>
        <line style="opacity:0.61;fill:none;stroke:#010101;stroke-width:0.25;stroke-miterlimit:10;" x1="128" x2="0" y1="128" y2="0"/>
        <line style="opacity:0.61;fill:none;stroke:#010101;stroke-width:0.25;stroke-miterlimit:10;" x1="0" x2="128" y1="128" y2="0"/>
        <g style="opacity:0.61;">
          <path d="M64,4.26c32.94,0,59.74,26.8,59.74,59.74S96.94,123.74,64,123.74S4.26,96.94,4.26,64 S31.06,4.26,64,4.26 M64,4C30.86,4,4,30.86,4,64s26.86,60,60,60s60-26.86,60-60S97.14,4,64,4L64,4z" style="fill:#010101;"/>
        </g>
        <path d="M107.97,115.97H20.03 c-4.42,0-8.03-3.61-8.03-8.03V20.03c0-4.42,3.61-8.03,8.03-8.03h87.94c4.42,0,8.03,3.61,8.03,8.03v87.91 C116,112.36,112.39,115.97,107.97,115.97z" style="opacity:0.61;fill:none;stroke:#010101;stroke-width:0.2578;stroke-miterlimit:10;"/>
        <path d="M100,124H28c-4.4,0-8-3.6-8-8 V12c0-4.4,3.6-8,8-8h72c4.4,0,8,3.6,8,8v104C108,120.4,104.4,124,100,124z" style="opacity:0.61;fill:none;stroke:#010101;stroke-width:0.2628;stroke-miterlimit:10;"/>
        <path d="M113.77,108H14.23 C8.6,108,4,103.4,4,97.77V30.28c0-5.63,4.6-10.23,10.23-10.23h99.54c5.63,0,10.23,4.6,10.23,10.23v67.48 C124,103.4,119.4,108,113.77,108z" style="opacity:0.61;fill:none;stroke:#010101;stroke-width:0.2627;stroke-miterlimit:10;"/>
      </g>
      <g>
        <g style="opacity:0.2;">
          <defs>
            <rect id="SVGID_4_" height="128" style="opacity:0.2;" width="128" x="0" y="0"/>
          </defs>
          <clipPath id="SVGID_5_">
            <use style="overflow:visible;" xlink:href="#SVGID_4_"/>
          </clipPath>
          <g style="clip-path:url(#SVGID_5_);">
            <g>
              <line style="fill:none;stroke:#010101;stroke-width:0.25;stroke-miterlimit:10;" x1="-28" x2="-28" y1="160" y2="-32"/>
              <line style="fill:none;stroke:#010101;stroke-width:0.25;stroke-miterlimit:10;" x1="-24" x2="-24" y1="160" y2="-32"/>
              <line style="fill:none;stroke:#010101;stroke-width:0.25;stroke-miterlimit:10;" x1="-20" x2="-20" y1="160" y2="-32"/>
              <line style="fill:none;stroke:#010101;stroke-width:0.25;stroke-miterlimit:10;" x1="-16" x2="-16" y1="160" y2="-32"/>
              <line style="fill:none;stroke:#010101;stroke-width:0.25;stroke-miterlimit:10;" x1="-12" x2="-12" y1="160" y2="-32"/>
              <line style="fill:none;stroke:#010101;stroke-width:0.25;stroke-miterlimit:10;" x1="-8" x2="-8" y1="160" y2="-32"/>
              <line style="fill:none;stroke:#010101;stroke-width:0.25;stroke-miterlimit:10;" x1="-4" x2="-4" y1="160" y2="-32"/>
              <line style="fill:none;stroke:#010101;stroke-width:0.25;stroke-miterlimit:10;" x1="0" x2="0" y1="160" y2="-32"/>
              <line style="fill:none;stroke:#010101;stroke-width:0.25;stroke-miterlimit:10;" x1="4" x2="4" y1="160" y2="-32"/>
              <line style="fill:none;stroke:#010101;stroke-width:0.25;stroke-miterlimit:10;" x1="8" x2="8" y1="160" y2="-32"/>
              <line style="fill:none;stroke:#010101;stroke-width:0.25;stroke-miterlimit:10;" x1="12" x2="12" y1="160" y2="-32"/>
              <line style="fill:none;stroke:#010101;stroke-width:0.25;stroke-miterlimit:10;" x1="16" x2="16" y1="160" y2="-32"/>
              <line style="fill:none;stroke:#010101;stroke-width:0.25;stroke-miterlimit:10;" x1="20" x2="20" y1="160" y2="-32"/>
              <line style="fill:none;stroke:#010101;stroke-width:0.25;stroke-miterlimit:10;" x1="24" x2="24" y1="160" y2="-32"/>
              <line style="fill:none;stroke:#010101;stroke-width:0.25;stroke-miterlimit:10;" x1="28" x2="28" y1="160" y2="-32"/>
              <line style="fill:none;stroke:#010101;stroke-width:0.25;stroke-miterlimit:10;" x1="32" x2="32" y1="160" y2="-32"/>
              <line style="fill:none;stroke:#010101;stroke-width:0.25;stroke-miterlimit:10;" x1="36" x2="36" y1="160" y2="-32"/>
              <line style="fill:none;stroke:#010101;stroke-width:0.25;stroke-miterlimit:10;" x1="40" x2="40" y1="160" y2="-32"/>
              <line style="fill:none;stroke:#010101;stroke-width:0.25;stroke-miterlimit:10;" x1="44" x2="44" y1="160" y2="-32"/>
              <line style="fill:none;stroke:#010101;stroke-width:0.25;stroke-miterlimit:10;" x1="48" x2="48" y1="160" y2="-32"/>
              <line style="fill:none;stroke:#010101;stroke-width:0.25;stroke-miterlimit:10;" x1="52" x2="52" y1="160" y2="-32"/>
              <line style="fill:none;stroke:#010101;stroke-width:0.25;stroke-miterlimit:10;" x1="56" x2="56" y1="160" y2="-32"/>
              <line style="fill:none;stroke:#010101;stroke-width:0.25;stroke-miterlimit:10;" x1="60" x2="60" y1="160" y2="-32"/>
              <line style="fill:none;stroke:#010101;stroke-width:0.25;stroke-miterlimit:10;" x1="64" x2="64" y1="160" y2="-32"/>
              <line style="fill:none;stroke:#010101;stroke-width:0.25;stroke-miterlimit:10;" x1="68" x2="68" y1="160" y2="-32"/>
              <line style="fill:none;stroke:#010101;stroke-width:0.25;stroke-miterlimit:10;" x1="72" x2="72" y1="160" y2="-32"/>
              <line style="fill:none;stroke:#010101;stroke-width:0.25;stroke-miterlimit:10;" x1="76" x2="76" y1="160" y2="-32"/>
              <line style="fill:none;stroke:#010101;stroke-width:0.25;stroke-miterlimit:10;" x1="80" x2="80" y1="160" y2="-32"/>
              <line style="fill:none;stroke:#010101;stroke-width:0.25;stroke-miterlimit:10;" x1="84" x2="84" y1="160" y2="-32"/>
              <line style="fill:none;stroke:#010101;stroke-width:0.25;stroke-miterlimit:10;" x1="88" x2="88" y1="160" y2="-32"/>
              <line style="fill:none;stroke:#010101;stroke-width:0.25;stroke-miterlimit:10;" x1="92" x2="92" y1="160" y2="-32"/>
              <line style="fill:none;stroke:#010101;stroke-width:0.25;stroke-miterlimit:10;" x1="96" x2="96" y1="160" y2="-32"/>
              <line style="fill:none;stroke:#010101;stroke-width:0.25;stroke-miterlimit:10;" x1="100" x2="100" y1="160" y2="-32"/>
              <line style="fill:none;stroke:#010101;stroke-width:0.25;stroke-miterlimit:10;" x1="104" x2="104" y1="160" y2="-32"/>
              <line style="fill:none;stroke:#010101;stroke-width:0.25;stroke-miterlimit:10;" x1="108" x2="108" y1="160" y2="-32"/>
              <line style="fill:none;stroke:#010101;stroke-width:0.25;stroke-miterlimit:10;" x1="112" x2="112" y1="160" y2="-32"/>
              <line style="fill:none;stroke:#010101;stroke-width:0.25;stroke-miterlimit:10;" x1="116" x2="116" y1="160" y2="-32"/>
              <line style="fill:none;stroke:#010101;stroke-width:0.25;stroke-miterlimit:10;" x1="120" x2="120" y1="160" y2="-32"/>
              <line style="fill:none;stroke:#010101;stroke-width:0.25;stroke-miterlimit:10;" x1="124" x2="124" y1="160" y2="-32"/>
              <line style="fill:none;stroke:#010101;stroke-width:0.25;stroke-miterlimit:10;" x1="128" x2="128" y1="160" y2="-32"/>
              <line style="fill:none;stroke:#010101;stroke-width:0.25;stroke-miterlimit:10;" x1="132" x2="132" y1="160" y2="-32"/>
              <line style="fill:none;stroke:#010101;stroke-width:0.25;stroke-miterlimit:10;" x1="136" x2="136" y1="160" y2="-32"/>
              <line style="fill:none;stroke:#010101;stroke-width:0.25;stroke-miterlimit:10;" x1="137" x2="137" y1="166.05" y2="-25.95"/>
              <line style="fill:none;stroke:#010101;stroke-width:0.25;stroke-miterlimit:10;" x1="144" x2="144" y1="160" y2="-32"/>
              <line style="fill:none;stroke:#010101;stroke-width:0.25;stroke-miterlimit:10;" x1="148" x2="148" y1="160" y2="-32"/>
              <line style="fill:none;stroke:#010101;stroke-width:0.25;stroke-miterlimit:10;" x1="152" x2="152" y1="160" y2="-32"/>
              <line style="fill:none;stroke:#010101;stroke-width:0.25;stroke-miterlimit:10;" x1="156" x2="156" y1="160" y2="-32"/>
            </g>
            <g>
              <line style="fill:none;stroke:#010101;stroke-width:0.25;stroke-miterlimit:10;" x1="-32" x2="160" y1="-28" y2="-28"/>
              <line style="fill:none;stroke:#010101;stroke-width:0.25;stroke-miterlimit:10;" x1="-32" x2="160" y1="-24" y2="-24"/>
              <line style="fill:none;stroke:#010101;stroke-width:0.25;stroke-miterlimit:10;" x1="-32" x2="160" y1="-20" y2="-20"/>
              <line style="fill:none;stroke:#010101;stroke-width:0.25;stroke-miterlimit:10;" x1="-32" x2="160" y1="-16" y2="-16"/>
              <line style="fill:none;stroke:#010101;stroke-width:0.25;stroke-miterlimit:10;" x1="-32" x2="160" y1="-12" y2="-12"/>
              <line style="fill:none;stroke:#010101;stroke-width:0.25;stroke-miterlimit:10;" x1="-32" x2="160" y1="-8" y2="-8"/>
              <line style="fill:none;stroke:#010101;stroke-width:0.25;stroke-miterlimit:10;" x1="-32" x2="160" y1="-4" y2="-4"/>
              <line style="fill:none;stroke:#010101;stroke-width:0.25;stroke-miterlimit:10;" x1="-32" x2="160" y1="0" y2="0"/>
              <line style="fill:none;stroke:#010101;stroke-width:0.25;stroke-miterlimit:10;" x1="-32" x2="160" y1="4" y2="4"/>
              <line style="fill:none;stroke:#010101;stroke-width:0.25;stroke-miterlimit:10;" x1="-32" x2="160" y1="8" y2="8"/>
              <line style="fill:none;stroke:#010101;stroke-width:0.25;stroke-miterlimit:10;" x1="-32" x2="160" y1="12" y2="12"/>
              <line style="fill:none;stroke:#010101;stroke-width:0.25;stroke-miterlimit:10;" x1="-32" x2="160" y1="16" y2="16"/>
              <line style="fill:none;stroke:#010101;stroke-width:0.25;stroke-miterlimit:10;" x1="-32" x2="160" y1="20" y2="20"/>
              <line style="fill:none;stroke:#010101;stroke-width:0.25;stroke-miterlimit:10;" x1="-32" x2="160" y1="24" y2="24"/>
              <line style="fill:none;stroke:#010101;stroke-width:0.25;stroke-miterlimit:10;" x1="-32" x2="160" y1="28" y2="28"/>
              <line style="fill:none;stroke:#010101;stroke-width:0.25;stroke-miterlimit:10;" x1="-32" x2="160" y1="32" y2="32"/>
              <line style="fill:none;stroke:#010101;stroke-width:0.25;stroke-miterlimit:10;" x1="-32" x2="160" y1="36" y2="36"/>
              <line style="fill:none;stroke:#010101;stroke-width:0.25;stroke-miterlimit:10;" x1="-32" x2="160" y1="40" y2="40"/>
              <line style="fill:none;stroke:#010101;stroke-width:0.25;stroke-miterlimit:10;" x1="-32" x2="160" y1="44" y2="44"/>
              <line style="fill:none;stroke:#010101;stroke-width:0.25;stroke-miterlimit:10;" x1="-32" x2="160" y1="48" y2="48"/>
              <line style="fill:none;stroke:#010101;stroke-width:0.25;stroke-miterlimit:10;" x1="-32" x2="160" y1="52" y2="52"/>
              <line style="fill:none;stroke:#010101;stroke-width:0.25;stroke-miterlimit:10;" x1="-32" x2="160" y1="56" y2="56"/>
              <line style="fill:none;stroke:#010101;stroke-width:0.25;stroke-miterlimit:10;" x1="-32" x2="160" y1="60" y2="60"/>
              <line style="fill:none;stroke:#010101;stroke-width:0.25;stroke-miterlimit:10;" x1="-32" x2="160" y1="64" y2="64"/>
              <line style="fill:none;stroke:#010101;stroke-width:0.25;stroke-miterlimit:10;" x1="-32" x2="160" y1="68" y2="68"/>
              <line style="fill:none;stroke:#010101;stroke-width:0.25;stroke-miterlimit:10;" x1="-32" x2="160" y1="72" y2="72"/>
              <line style="fill:none;stroke:#010101;stroke-width:0.25;stroke-miterlimit:10;" x1="-32" x2="160" y1="76" y2="76"/>
              <line style="fill:none;stroke:#010101;stroke-width:0.25;stroke-miterlimit:10;" x1="-32" x2="160" y1="80" y2="80"/>
              <line style="fill:none;stroke:#010101;stroke-width:0.25;stroke-miterlimit:10;" x1="-32" x2="160" y1="84" y2="84"/>
              <line style="fill:none;stroke:#010101;stroke-width:0.25;stroke-miterlimit:10;" x1="-32" x2="160" y1="88" y2="88"/>
              <line style="fill:none;stroke:#010101;stroke-width:0.25;stroke-miterlimit:10;" x1="-32" x2="160" y1="92" y2="92"/>
              <line style="fill:none;stroke:#010101;stroke-width:0.25;stroke-miterlimit:10;" x1="-32" x2="160" y1="96" y2="96"/>
              <line style="fill:none;stroke:#010101;stroke-width:0.25;stroke-miterlimit:10;" x1="-32" x2="160" y1="100" y2="100"/>
              <line style="fill:none;stroke:#010101;stroke-width:0.25;stroke-miterlimit:10;" x1="-32" x2="160" y1="104" y2="104"/>
              <line style="fill:none;stroke:#010101;stroke-width:0.25;stroke-miterlimit:10;" x1="-32" x2="160" y1="108" y2="108"/>
              <line style="fill:none;stroke:#010101;stroke-width:0.25;stroke-miterlimit:10;" x1="-32" x2="160" y1="112" y2="112"/>
              <line style="fill:none;stroke:#010101;stroke-width:0.25;stroke-miterlimit:10;" x1="-32" x2="160" y1="116" y2="116"/>
              <line style="fill:none;stroke:#010101;stroke-width:0.25;stroke-miterlimit:10;" x1="-32" x2="160" y1="120" y2="120"/>
              <line style="fill:none;stroke:#010101;stroke-width:0.25;stroke-miterlimit:10;" x1="-32" x2="160" y1="124" y2="124"/>
              <line style="fill:none;stroke:#010101;stroke-width:0.25;stroke-miterlimit:10;" x1="-32" x2="160" y1="128" y2="128"/>
              <line style="fill:none;stroke:#010101;stroke-width:0.25;stroke-miterlimit:10;" x1="-32" x2="160" y1="132" y2="132"/>
              <line style="fill:none;stroke:#010101;stroke-width:0.25;stroke-miterlimit:10;" x1="-32" x2="160" y1="136" y2="136"/>
              <line style="fill:none;stroke:#010101;stroke-width:0.25;stroke-miterlimit:10;" x1="-32" x2="160" y1="140" y2="140"/>
              <line style="fill:none;stroke:#010101;stroke-width:0.25;stroke-miterlimit:10;" x1="-32" x2="160" y1="144" y2="144"/>
              <line style="fill:none;stroke:#010101;stroke-width:0.25;stroke-miterlimit:10;" x1="-32" x2="160" y1="148" y2="148"/>
              <line style="fill:none;stroke:#010101;stroke-width:0.25;stroke-miterlimit:10;" x1="-32" x2="160" y1="152" y2="152"/>
              <line style="fill:none;stroke:#010101;stroke-width:0.25;stroke-miterlimit:10;" x1="-32" x2="160" y1="156" y2="156"/>
            </g>
            <path d="M159.75-31.75v191.5h-191.5v-191.5H159.75 M160-32H-32v192h192V-32L160-32z" style="fill:#010101;"/>
          </g>
        </g>
        <g>
          <rect height="128" style="opacity:0.3;fill:#EF4438;" width="4" x="0" y="0"/>
          <rect height="128" style="opacity:0.3;fill:#EF4438;" width="4" x="124" y="0"/>
          <rect height="120" style="opacity:0.3;fill:#EF4438;" transform="matrix(-1.836970e-16 1 -1 -1.836970e-16 66 -62)" width="4" x="62" y="-58"/>
          <rect height="120" style="opacity:0.3;fill:#EF4438;" transform="matrix(-1.836970e-16 1 -1 -1.836970e-16 190 62)" width="4" x="62" y="66"/>
        </g>
      </g>
    </g>
  </g>
</svg>
